; generated by Slic3r 1.2.6 on 2015-03-14 at 18:01:12

; external perimeters extrusion width = 0.50mm
; perimeters extrusion width = 0.72mm
; infill extrusion width = 0.72mm
; solid infill extrusion width = 0.72mm
; top infill extrusion width = 0.72mm

M107
M190 S30 ; set bed temperature
M104 S185 ; set temperature
G28 ; home all axes
G1 Z5 F5000 ; lift nozzle
M109 S185 ; wait for temperature to be reached
G21 ; set units to millimeters
G90 ; use absolute coordinates
M82 ; use absolute distances for extrusion
G92 E0
G1 Z0.300 F10800.000
G1 E-0.80000 F2400.00000
G92 E0
G1 X100.922 Y90.654 F10800.000
G1 E0.80000 F2400.00000
G1 X102.684 Y89.115 E1.23418 F1800.000
G1 X104.860 Y88.254 E1.66836
G1 X106.273 Y88.107 E1.93191
G1 X121.795 Y88.107 E4.81239
G1 X124.101 Y88.504 E5.24657
G1 X126.141 Y89.650 E5.68075 F1800.000
G1 X127.680 Y91.412 E6.11493
G1 X128.541 Y93.587 E6.54910
G1 X128.688 Y95.000 E6.81265
G1 X128.688 Y105.000 E8.66836
G1 X128.290 Y107.306 E9.10254
G1 X127.145 Y109.346 E9.53671
G1 X125.383 Y110.885 E9.97089
G1 X123.208 Y111.746 E10.40507
G1 X121.795 Y111.893 E10.66862
G1 X106.273 Y111.893 E13.54911
G1 X103.967 Y111.496 E13.98328
G1 X101.927 Y110.350 E14.41746
G1 X100.387 Y108.588 E14.85164
G1 X99.526 Y106.413 E15.28582
G1 X99.380 Y105.000 E15.54937
G1 X99.380 Y95.000 E17.40507
G1 X99.777 Y92.694 E17.83925
G1 X100.886 Y90.720 E18.25951
G1 E17.45951 F2400.00000
G92 E0
G1 X119.509 Y102.715 F10800.000
G1 E0.80000 F2400.00000
G1 X108.558 Y102.715 E2.83228 F1800.000
G1 X108.558 Y97.285 E3.83978
G1 X119.509 Y97.285 E5.87206
G1 X119.509 Y102.640 E6.86564
G1 X120.402 Y103.607 F10800.000
G1 X107.665 Y103.607 E9.22924 F1800.000
G1 X107.665 Y96.393 E10.56806
G1 X120.402 Y96.393 E12.93166
G1 X120.402 Y103.532 E14.25656
G1 X121.295 Y104.500 F10800.000
G1 X106.773 Y104.500 E16.95147 F1800.000
G1 X106.773 Y95.500 E18.62161
G1 X121.295 Y95.500 E21.31652
G1 X121.295 Y104.425 E22.97274
G1 X120.862 Y104.250 F10800.000
G1 X118.976 Y98.237 F10800.000
G1 X118.557 Y97.819 E23.08947 F1800.000
G1 X117.216 Y97.819 E23.35380
G1 X118.976 Y99.578 E23.84435
G1 X118.976 Y100.919 E24.10868
G1 X115.875 Y97.819 E24.97305
G1 X114.534 Y97.819 E25.23738
G1 X118.897 Y102.181 E26.45350
G1 X117.556 Y102.181 E26.71783
G1 X113.193 Y97.819 E27.93395
G1 X111.852 Y97.819 E28.19828
G1 X116.215 Y102.181 E29.41440
G1 X114.874 Y102.181 E29.67873
G1 X110.511 Y97.819 E30.89485
G1 X109.170 Y97.819 E31.15918
G1 X113.533 Y102.181 E32.37530
G1 X112.192 Y102.181 E32.63964
G1 X109.091 Y99.081 E33.50400
G1 X109.091 Y100.422 E33.76833
G1 X110.851 Y102.181 E34.25888
G1 X109.510 Y102.181 E34.52321
G1 X109.091 Y101.763 E34.63994
G1 Z0.600 F10800.000
G1 X120.345 Y103.550 F10800.000
G1 X107.566 Y103.550 E35.68316 F900.000
G1 X107.566 Y96.450 E36.26282
G1 X120.345 Y96.450 E37.30604
G1 X120.345 Y103.475 E37.87959
G1 X121.000 Y104.205 F10800.000
G1 X106.911 Y104.205 E39.02966 F4800.000
G1 X106.911 Y95.795 E39.71618
G1 X121.000 Y95.795 E40.86626
G1 X121.000 Y104.130 E41.54666
G1 X121.545 Y104.750 F10800.000
G1 X106.366 Y104.750 E42.37135 F2400.000
G1 X106.366 Y95.250 E42.88751
G1 X121.545 Y95.250 E43.71221
G1 X121.545 Y104.675 E44.22430
G1 X121.112 Y104.500 F10800.000
G1 X119.640 Y103.163 F10800.000
G1 X119.958 Y102.845 E44.26120 F1200.000
G1 X119.958 Y101.914 E44.33768
G1 X118.709 Y103.163 E44.48274
G1 X117.777 Y103.163 E44.55923
G1 X119.958 Y100.982 E44.81246
G1 X119.958 Y100.051 E44.88894
G1 X116.846 Y103.163 E45.25034
G1 X115.915 Y103.163 E45.32682
G1 X119.958 Y99.120 E45.79638
G1 X119.958 Y98.189 E45.87287
G1 X114.984 Y103.163 E46.45059
G1 X114.052 Y103.163 E46.52708
G1 X119.958 Y97.257 E47.21297
G1 X119.446 Y96.837 E47.26731
G1 X113.121 Y103.163 E48.00199
G1 X112.190 Y103.163 E48.07848
G1 X118.515 Y96.837 E48.81316
G1 X117.584 Y96.837 E48.88965
G1 X111.259 Y103.163 E49.62433
G1 X110.327 Y103.163 E49.70082
G1 X116.653 Y96.837 E50.43550
G1 X115.721 Y96.837 E50.51199
G1 X109.396 Y103.163 E51.24667
G1 X108.465 Y103.163 E51.32315
G1 X114.790 Y96.837 E52.05784
G1 X113.859 Y96.837 E52.13432
G1 X107.954 Y102.743 E52.82021
G1 X107.954 Y101.811 E52.89670
G1 X112.928 Y96.837 E53.47442
G1 X111.996 Y96.837 E53.55091
G1 X107.954 Y100.880 E54.02047
G1 X107.954 Y99.949 E54.09695
G1 X111.065 Y96.837 E54.45834
G1 X110.134 Y96.837 E54.53483
G1 X107.954 Y99.018 E54.78806
G1 X107.954 Y98.086 E54.86454
G1 X109.203 Y96.837 E55.00960
G1 X108.271 Y96.837 E55.08609
G1 X107.954 Y97.155 E55.12298
G1 Z0.900 F10800.000
G1 X120.345 Y103.550 F10800.000
G1 X107.449 Y103.550 E56.17577 F900.000
G1 X107.449 Y96.450 E56.75543
G1 X120.345 Y96.450 E57.80822
G1 X120.345 Y103.475 E58.38176
G1 X121.000 Y104.205 F10800.000
G1 X106.794 Y104.205 E59.54140 F4800.000
G1 X106.794 Y95.795 E60.22792
G1 X121.000 Y95.795 E61.38756
G1 X121.000 Y104.130 E62.06796
G1 X121.545 Y104.750 F10800.000
G1 X106.249 Y104.750 E62.89902 F2400.000
G1 X106.249 Y95.250 E63.41519
G1 X121.545 Y95.250 E64.24625
G1 X121.545 Y104.675 E64.75833
G1 X121.112 Y104.500 F10800.000
G1 X119.958 Y97.155 F10800.000
G1 X119.640 Y96.837 E64.79523 F1200.000
G1 X118.709 Y96.837 E64.87172
G1 X119.958 Y98.086 E65.01678
G1 X119.958 Y99.018 E65.09326
G1 X117.777 Y96.837 E65.34649
G1 X116.846 Y96.837 E65.42298
G1 X119.958 Y99.949 E65.78437
G1 X119.958 Y100.880 E65.86086
G1 X115.915 Y96.837 E66.33042
G1 X114.984 Y96.837 E66.40690
G1 X119.958 Y101.811 E66.98462
G1 X119.958 Y102.743 E67.06111
G1 X114.052 Y96.837 E67.74700
G1 X113.121 Y96.837 E67.82348
G1 X119.446 Y103.163 E68.55817
G1 X118.515 Y103.163 E68.63465
G1 X112.190 Y96.837 E69.36933
G1 X111.259 Y96.837 E69.44582
G1 X117.584 Y103.163 E70.18050
G1 X116.653 Y103.163 E70.25699
G1 X110.327 Y96.837 E70.99167
G1 X109.396 Y96.837 E71.06815
G1 X115.721 Y103.163 E71.80284
G1 X114.790 Y103.163 E71.87932
G1 X108.465 Y96.837 E72.61401
G1 X107.954 Y97.257 E72.66835
G1 X113.859 Y103.163 E73.35423
G1 X112.928 Y103.163 E73.43072
G1 X107.954 Y98.189 E74.00844
G1 X107.954 Y99.120 E74.08493
G1 X111.996 Y103.163 E74.55448
G1 X111.065 Y103.163 E74.63097
G1 X107.954 Y100.051 E74.99236
G1 X107.954 Y100.982 E75.06884
G1 X110.134 Y103.163 E75.32207
G1 X109.203 Y103.163 E75.39856
G1 X107.954 Y101.914 E75.54362
G1 X107.954 Y102.845 E75.62010
G1 X108.271 Y103.163 E75.65700
M106 S252.45
G1 Z1.200 F10800.000
G1 X120.345 Y103.550 F10800.000
G1 X107.332 Y103.550 E76.71935 F900.000
G1 X107.332 Y96.450 E77.29901
G1 X120.345 Y96.450 E78.36136
G1 X120.345 Y103.475 E78.93491
G1 X121.000 Y104.205 F10800.000
G1 X106.677 Y104.205 E80.10411 F4800.000
G1 X106.677 Y95.795 E80.79063
G1 X121.000 Y95.795 E81.95984
G1 X121.000 Y104.130 E82.64024
G1 X121.545 Y104.750 F10800.000
G1 X106.132 Y104.750 E83.47767 F2400.000
G1 X106.132 Y95.250 E83.99383
G1 X121.545 Y95.250 E84.83125
G1 X121.545 Y104.675 E85.34334
G1 X121.112 Y104.500 F10800.000
G1 X119.799 Y98.397 F10800.000
G1 X117.703 Y97.835 E85.52045 F4800.000
G1 X112.535 Y103.004 E86.11712
G1 X119.799 Y103.004 E86.71010
G1 X119.799 Y98.397 E87.08616
G1 X117.240 Y97.373 F10800.000
G1 X117.139 Y96.996 E87.11798 F4800.000
G1 X107.878 Y96.996 E87.87399
G1 X107.878 Y101.979 E88.28073
G1 X111.629 Y102.984 E88.59772
G1 X117.240 Y97.373 E89.24550
M106 S255
G1 Z1.500 F10800.000
G1 X120.345 Y103.550 F10800.000
G1 X107.214 Y103.550 E90.31742 F887.617
G1 X107.214 Y96.450 E90.89708
G1 X120.345 Y96.450 E91.96900
G1 X120.345 Y103.475 E92.54254
G1 X121.000 Y104.205 F10800.000
G1 X106.560 Y104.205 E93.72131 F4733.958
G1 X106.560 Y95.795 E94.40783
G1 X121.000 Y95.795 E95.58660
G1 X121.000 Y104.130 E96.26700
G1 X121.545 Y104.750 F10800.000
G1 X106.015 Y104.750 E97.11079 F2366.979
G1 X106.015 Y95.250 E97.62696
G1 X121.545 Y95.250 E98.47075
G1 X121.545 Y104.675 E98.98284
G1 X121.112 Y104.500 F10800.000
G1 X119.799 Y98.397 F10800.000
G1 X117.703 Y97.835 E99.15995 F4733.958
G1 X117.478 Y96.996 E99.23088
G1 X119.799 Y96.996 E99.42031
G1 X119.799 Y98.397 E99.53466
G1 X117.071 Y98.005 F10800.000
G1 X112.261 Y102.814 E100.08990 F4733.958
G1 X112.312 Y103.004 E100.10591
G1 X111.634 Y103.004 E100.16122
G1 X111.629 Y102.984 E100.16291
G1 X107.761 Y101.947 E100.48980
G1 X107.761 Y96.996 E100.89398
G1 X116.801 Y96.996 E101.63190
G1 X117.071 Y98.005 E101.71714
M106 S252.45
G1 Z1.800 F10800.000
G1 X120.345 Y103.550 F10800.000
G1 X107.097 Y103.550 E102.79862 F900.000
G1 X107.097 Y96.450 E103.37828
G1 X120.345 Y96.450 E104.45976
G1 X120.345 Y103.475 E105.03331
G1 X121.000 Y104.205 F10800.000
G1 X106.443 Y104.205 E106.22164 F4800.000
G1 X106.443 Y95.795 E106.90816
G1 X121.000 Y95.795 E108.09650
G1 X121.000 Y104.130 E108.77690
G1 X121.545 Y104.750 F10800.000
G1 X105.898 Y104.750 E109.62706 F2400.000
G1 X105.898 Y95.250 E110.14322
G1 X121.545 Y95.250 E110.99338
G1 X121.545 Y104.675 E111.50547
G1 X121.112 Y104.500 F10800.000
G1 X117.240 Y97.373 F10800.000
G1 X119.799 Y98.058 E111.72169 F4800.000
G1 X119.799 Y98.736 E111.77700
G1 X117.071 Y98.005 E112.00754
G1 X112.261 Y102.814 E112.56279
G1 X107.644 Y101.577 E112.95301
G1 X107.644 Y96.996 E113.32697
G1 X117.139 Y96.996 E114.10211
G1 X117.240 Y97.373 E114.13393
G1 X110.439 Y103.004 F10800.000
G1 X107.644 Y103.004 E114.36212 F4800.000
G1 X107.644 Y102.255 E114.42326
G1 X110.439 Y103.004 E114.65950
M106 S255
G1 Z2.100 F10800.000
G1 X120.345 Y103.550 F10800.000
G1 X106.970 Y103.550 E115.75140 F2836.603
G1 X106.970 Y96.450 E116.33106
G1 X120.345 Y96.450 E117.42297
G1 X120.345 Y103.475 E117.99651
G1 X121.000 Y104.205 F10800.000
G1 X106.315 Y104.205 E119.19527 F2836.603
G1 X106.315 Y95.795 E119.88179
G1 X121.000 Y95.795 E121.08054
G1 X121.000 Y104.130 E121.76094
G1 X121.545 Y104.750 F10800.000
G1 X105.770 Y104.750 E122.61804 F1418.301
G1 X105.770 Y95.250 E123.13420
G1 X121.545 Y95.250 E123.99130
G1 X121.545 Y104.675 E124.50338
G1 X121.112 Y104.500 F10800.000
G1 X119.799 Y98.397 F10800.000
G1 X117.703 Y97.835 E124.68049 F2836.603
G1 X112.535 Y103.004 E125.27716
G1 X119.799 Y103.004 E125.87014
G1 X119.799 Y98.397 E126.24620
G1 X117.240 Y97.373 F10800.000
G1 X117.139 Y96.996 E126.27802 F2836.603
G1 X107.516 Y96.996 E127.06358
G1 X107.516 Y101.882 E127.46240
G1 X111.629 Y102.984 E127.80999
G1 X117.240 Y97.373 E128.45777
G1 Z2.400 F10800.000
G1 X120.345 Y103.550 F10800.000
G1 X106.825 Y103.550 E129.56148 F2679.390
G1 X106.825 Y96.450 E130.14114
G1 X120.345 Y96.450 E131.24484
G1 X120.345 Y103.475 E131.81839
G1 X121.000 Y104.205 F10800.000
G1 X106.170 Y104.205 E133.02895 F2679.390
G1 X106.170 Y95.795 E133.71547
G1 X121.000 Y95.795 E134.92603
G1 X121.000 Y104.130 E135.60643
G1 X121.545 Y104.750 F10800.000
G1 X105.625 Y104.750 E136.47138 F1339.695
G1 X105.625 Y95.250 E136.98754
G1 X121.545 Y95.250 E137.85250
G1 X121.545 Y104.675 E138.36458
G1 X121.112 Y104.500 F10800.000
G1 X119.799 Y98.397 F10800.000
G1 X117.703 Y97.835 E138.54169 F2679.390
G1 X117.478 Y96.996 E138.61262
G1 X119.799 Y96.996 E138.80205
G1 X119.799 Y98.397 E138.91640
G1 X117.071 Y98.005 F10800.000
G1 X112.261 Y102.814 E139.47165 F2679.390
G1 X112.312 Y103.004 E139.48765
G1 X111.634 Y103.004 E139.54297
G1 X111.629 Y102.984 E139.54465
G1 X107.372 Y101.843 E139.90446
G1 X107.372 Y96.996 E140.30012
G1 X116.801 Y96.996 E141.06983
G1 X117.071 Y98.005 E141.15507
G1 Z2.700 F10800.000
G1 X120.345 Y103.550 F10800.000
G1 X106.680 Y103.550 E142.27058 F2767.074
G1 X106.680 Y96.450 E142.85024
G1 X120.345 Y96.450 E143.96575
G1 X120.345 Y103.475 E144.53929
G1 X121.000 Y104.205 F10800.000
G1 X106.026 Y104.205 E145.76166 F2767.074
G1 X106.026 Y95.795 E146.44818
G1 X121.000 Y95.795 E147.67054
G1 X121.000 Y104.130 E148.35094
G1 X121.545 Y104.750 F10800.000
G1 X105.481 Y104.750 E149.22375 F1383.537
G1 X105.481 Y95.250 E149.73991
G1 X121.545 Y95.250 E150.61272
G1 X121.545 Y104.675 E151.12481
G1 X121.112 Y104.500 F10800.000
G1 X117.240 Y97.373 F10800.000
G1 X119.799 Y98.058 E151.34103 F2767.074
G1 X119.799 Y98.736 E151.39634
G1 X117.071 Y98.005 E151.62688
G1 X112.261 Y102.814 E152.18213
G1 X107.227 Y101.466 E152.60758
G1 X107.227 Y96.996 E152.97242
G1 X117.139 Y96.996 E153.78159
G1 X117.240 Y97.373 E153.81340
G1 X110.439 Y103.004 F10800.000
G1 X107.227 Y103.004 E154.07562 F2767.074
G1 X107.227 Y102.143 E154.14588
G1 X110.439 Y103.004 E154.41735
G1 Z3.000 F10800.000
G1 X120.345 Y103.550 F10800.000
G1 X106.536 Y103.550 E155.54466 F2887.445
G1 X106.536 Y96.450 E156.12433
G1 X120.345 Y96.450 E157.25164
G1 X120.345 Y103.475 E157.82518
G1 X121.000 Y104.205 F10800.000
G1 X105.881 Y104.205 E159.05935 F2887.445
G1 X105.881 Y95.795 E159.74587
G1 X121.000 Y95.795 E160.98004
G1 X121.000 Y104.130 E161.66044
G1 X121.545 Y104.750 F10800.000
G1 X105.336 Y104.750 E162.54110 F1443.722
G1 X105.336 Y95.250 E163.05726
G1 X121.545 Y95.250 E163.93793
G1 X121.545 Y104.675 E164.45001
G1 X121.112 Y104.500 F10800.000
G1 X119.799 Y98.397 F10800.000
G1 X117.703 Y97.835 E164.62712 F2887.445
G1 X112.535 Y103.004 E165.22379
G1 X119.799 Y103.004 E165.81677
G1 X119.799 Y98.397 E166.19283
G1 X117.240 Y97.373 F10800.000
G1 X117.139 Y96.996 E166.22465 F2887.445
G1 X107.082 Y96.996 E167.04562
G1 X107.082 Y101.766 E167.43495
G1 X111.629 Y102.984 E167.81920
G1 X117.240 Y97.373 E168.46698
G1 Z3.300 F10800.000
G1 X120.345 Y103.550 F10800.000
G1 X106.391 Y103.550 E169.60610 F2730.232
G1 X106.391 Y96.450 E170.18576
G1 X120.345 Y96.450 E171.32488
G1 X120.345 Y103.475 E171.89842
G1 X121.000 Y104.205 F10800.000
G1 X105.737 Y104.205 E173.14439 F2730.232
G1 X105.737 Y95.795 E173.83091
G1 X121.000 Y95.795 E175.07688
G1 X121.000 Y104.130 E175.75728
G1 X121.545 Y104.750 F10800.000
G1 X105.192 Y104.750 E176.64580 F1365.116
G1 X105.192 Y95.250 E177.16196
G1 X121.545 Y95.250 E178.05048
G1 X121.545 Y104.675 E178.56257
G1 X121.112 Y104.500 F10800.000
G1 X119.799 Y98.397 F10800.000
G1 X117.703 Y97.835 E178.73968 F2730.232
G1 X117.478 Y96.996 E178.81061
G1 X119.799 Y96.996 E179.00004
G1 X119.799 Y98.397 E179.11439
G1 X117.071 Y98.005 F10800.000
G1 X112.261 Y102.814 E179.66964 F2730.232
G1 X112.312 Y103.004 E179.68564
G1 X111.634 Y103.004 E179.74096
G1 X111.629 Y102.984 E179.74264
G1 X106.938 Y101.727 E180.13911
G1 X106.938 Y96.996 E180.52528
G1 X116.801 Y96.996 E181.33040
G1 X117.071 Y98.005 E181.41564
G1 Z3.600 F10800.000
G1 X120.345 Y103.550 F10800.000
G1 X106.247 Y103.550 E182.56656 F2829.905
G1 X106.247 Y96.450 E183.14622
G1 X120.345 Y96.450 E184.29714
G1 X120.345 Y103.475 E184.87068
G1 X121.000 Y104.205 F10800.000
G1 X105.592 Y104.205 E186.12846 F2829.905
G1 X105.592 Y95.795 E186.81498
G1 X121.000 Y95.795 E188.07275
G1 X121.000 Y104.130 E188.75315
G1 X121.545 Y104.750 F10800.000
G1 X105.047 Y104.750 E189.64953 F1414.952
G1 X105.047 Y95.250 E190.16569
G1 X121.545 Y95.250 E191.06207
G1 X121.545 Y104.675 E191.57415
G1 X121.112 Y104.500 F10800.000
G1 X117.240 Y97.373 F10800.000
G1 X119.799 Y98.058 E191.79038 F2829.905
G1 X119.799 Y98.736 E191.84569
G1 X117.071 Y98.005 E192.07623
G1 X112.261 Y102.814 E192.63148
G1 X106.793 Y101.349 E193.09359
G1 X106.793 Y96.996 E193.44894
G1 X117.139 Y96.996 E194.29352
G1 X117.240 Y97.373 E194.32533
G1 X110.439 Y103.004 F10800.000
G1 X106.793 Y103.004 E194.62296 F2829.905
G1 X106.793 Y102.027 E194.70271
G1 X110.439 Y103.004 E195.01084
G1 Z3.900 F10800.000
G1 X120.345 Y103.550 F10800.000
G1 X106.102 Y103.550 E196.17356 F2938.287
G1 X106.102 Y96.450 E196.75323
G1 X120.345 Y96.450 E197.91595
G1 X120.345 Y103.475 E198.48949
G1 X121.000 Y104.205 F10800.000
G1 X105.447 Y104.205 E199.75907 F2938.287
G1 X105.447 Y95.795 E200.44559
G1 X121.000 Y95.795 E201.71517
G1 X121.000 Y104.130 E202.39557
G1 X121.545 Y104.750 F10800.000
G1 X104.902 Y104.750 E203.29980 F1469.144
G1 X104.902 Y95.250 E203.81596
G1 X121.545 Y95.250 E204.72019
G1 X121.545 Y104.675 E205.23228
G1 X121.112 Y104.500 F10800.000
G1 X119.799 Y98.397 F10800.000
G1 X117.703 Y97.835 E205.40939 F2938.287
G1 X112.535 Y103.004 E206.00606
G1 X119.799 Y103.004 E206.59904
G1 X119.799 Y98.397 E206.97510
G1 X117.240 Y97.373 F10800.000
G1 X117.139 Y96.996 E207.00692 F2938.287
G1 X106.649 Y96.996 E207.86330
G1 X106.649 Y101.649 E208.24314
G1 X111.629 Y102.984 E208.66405
G1 X117.240 Y97.373 E209.31183
G1 Z4.200 F10800.000
G1 X120.345 Y103.550 F10800.000
G1 X105.957 Y103.550 E210.48636 F2781.074
G1 X105.957 Y96.450 E211.06602
