; generated by Slic3r 1.2.6 on 2015-03-14 at 19:11:41

; external perimeters extrusion width = 0.50mm
; perimeters extrusion width = 0.72mm
; infill extrusion width = 0.72mm
; solid infill extrusion width = 0.72mm
; top infill extrusion width = 0.72mm

M107
M190 S30 ; set bed temperature
M104 S185 ; set temperature
G28 ; home all axes
G1 Z5 F5000 ; lift nozzle
M109 S185 ; wait for temperature to be reached
G21 ; set units to millimeters
G90 ; use absolute coordinates
M82 ; use absolute distances for extrusion
G92 E0
G1 Z0.300 F10800.000
G1 E-0.80000 F2400.00000
G92 E0
G1 X84.650 Y85.654 F10800.000
G1 E0.80000 F2400.00000
G1 X86.412 Y84.115 E1.23418 F1800.000
G1 X88.587 Y83.254 E1.66836
G1 X90.000 Y83.107 E1.93191
G1 X110.000 Y83.107 E5.64332
G1 X112.306 Y83.504 E6.07749
G1 X114.346 Y84.650 E6.51167 F1800.000
G1 X115.885 Y86.412 E6.94585
G1 X116.746 Y88.587 E7.38003
G1 X116.893 Y90.000 E7.64358
G1 X116.893 Y110.000 E11.35499
G1 X116.496 Y112.306 E11.78917
G1 X115.350 Y114.346 E12.22335
G1 X113.588 Y115.885 E12.65752
G1 X111.413 Y116.746 E13.09170
G1 X110.000 Y116.893 E13.35525
G1 X90.000 Y116.893 E17.06666
G1 X87.694 Y116.496 E17.50084
G1 X85.654 Y115.350 E17.93502
G1 X84.115 Y113.588 E18.36920
G1 X83.254 Y111.413 E18.80337
G1 X83.107 Y110.000 E19.06692
G1 X83.107 Y90.000 E22.77833
G1 X83.504 Y87.694 E23.21251
G1 X84.613 Y85.720 E23.63277
G1 E22.83277 F2400.00000
G92 E0
G1 X96.840 Y97.299 F10800.000
G1 E0.80000 F2400.00000
G1 X96.182 Y97.697 E0.94265 F1800.000
G1 X95.444 Y97.911 E1.08531
G1 X94.675 Y97.927 E1.22796
G1 X93.929 Y97.743 E1.37061
G1 X93.256 Y97.372 E1.51326
G1 X92.701 Y96.840 E1.65592
G1 X92.303 Y96.182 E1.79857
G1 X92.089 Y95.444 E1.94122
G1 X92.073 Y94.670 E2.08491
G1 X92.266 Y93.913 E2.22982
G1 X92.628 Y93.256 E2.36911
G1 X93.160 Y92.701 E2.51176
G1 X93.818 Y92.303 E2.65441
G1 X94.556 Y92.089 E2.79706
G1 X95.306 Y92.074 E2.93635 F1800.000
G1 X96.066 Y92.254 E3.08126
G1 X96.744 Y92.628 E3.22495
G1 X97.303 Y93.164 E3.36863
G1 X97.702 Y93.835 E3.51354
G1 X97.911 Y94.556 E3.65283
G1 X97.927 Y95.325 E3.79548
G1 X97.743 Y96.071 E3.93814
G1 X97.372 Y96.744 E4.08079
G1 X96.892 Y97.245 E4.20952
G1 X96.277 Y96.596 F10800.000
G1 X95.821 Y96.872 E4.30856 F1800.000
G1 X95.308 Y97.021 E4.40759
G1 X94.775 Y97.032 E4.50663
G1 X94.256 Y96.904 E4.60566
G1 X93.789 Y96.647 E4.70469
G1 X93.404 Y96.277 E4.80373
G1 X93.128 Y95.821 E4.90276
G1 X92.979 Y95.308 E5.00180
G1 X92.968 Y94.773 E5.10120
G1 X93.103 Y94.244 E5.20249
G1 X93.353 Y93.789 E5.29882
G1 X93.723 Y93.404 E5.39786
G1 X94.179 Y93.128 E5.49689
G1 X94.692 Y92.979 E5.59592
G1 X95.211 Y92.968 E5.69226 F1800.000
G1 X95.742 Y93.095 E5.79355
G1 X96.211 Y93.353 E5.89295
G1 X96.598 Y93.724 E5.99236
G1 X96.876 Y94.193 E6.09364
G1 X97.021 Y94.692 E6.18998
G1 X97.032 Y95.225 E6.28901
G1 X96.904 Y95.744 E6.38804
G1 X96.647 Y96.211 E6.48708
G1 X96.329 Y96.542 E6.57219
G1 X96.331 Y97.093 F10800.000
G1 X92.285 Y97.679 F10800.000
G1 X92.722 Y98.098 E6.68453 F1800.000
G1 X93.601 Y98.582 E6.87080
G1 X94.576 Y98.822 E7.05707
G1 X95.580 Y98.801 E7.24334
G1 X96.544 Y98.522 E7.42961
G1 X97.403 Y98.002 E7.61589
G1 X98.098 Y97.278 E7.80216
G1 X98.582 Y96.399 E7.98843
G1 X98.822 Y95.424 E8.17470
G1 X98.801 Y94.420 E8.36097
G1 X98.528 Y93.477 E8.54322
G1 X97.819 Y92.285 E8.80045
G1 X107.715 Y92.285 E10.63670
G1 X107.715 Y107.715 E13.49990
G1 X92.285 Y107.715 E16.36311
G1 X92.285 Y97.754 E18.21158
G1 X91.393 Y91.393 F10800.000
G1 X108.607 Y91.393 E21.40611 F1800.000
G1 X108.607 Y108.607 E24.60063
G1 X91.393 Y108.607 E27.79515
G1 X91.393 Y91.468 E30.97576
G1 X90.500 Y90.500 F10800.000
G1 X109.500 Y90.500 E34.50160 F1800.000
G1 X109.500 Y109.500 E38.02744
G1 X90.500 Y109.500 E41.55328
G1 X90.500 Y90.575 E45.06520
G1 X90.933 Y90.750 F10800.000
G1 X92.819 Y106.763 F10800.000
G1 X93.237 Y107.181 E45.17554 F1800.000
G1 X94.505 Y107.181 E45.41174
G1 X92.819 Y105.495 E45.85611
G1 X92.819 Y104.227 E46.09230
G1 X95.773 Y107.181 E46.87070
G1 X97.040 Y107.181 E47.10689
G1 X92.819 Y102.960 E48.21932
G1 X92.819 Y101.692 E48.45551
G1 X98.308 Y107.181 E49.90197
G1 X99.576 Y107.181 E50.13816
G1 X92.819 Y100.424 E51.91865
G1 X92.819 Y99.157 E52.15484
G1 X100.843 Y107.181 E54.26935
G1 X102.111 Y107.181 E54.50555
G1 X94.280 Y99.350 E56.56910
G1 X95.523 Y99.326 E56.80079
G1 X103.378 Y107.181 E58.87077
G1 X104.646 Y107.181 E59.10697
G1 X96.506 Y99.041 E61.25204
G1 X97.323 Y98.591 E61.42593
G1 X105.914 Y107.181 E63.68960
G1 X107.161 Y107.161 E63.92209
G1 X98.018 Y98.018 E66.33144
G1 X98.599 Y97.332 E66.49902
G1 X107.181 Y105.914 E68.76041
G1 X107.181 Y104.646 E68.99661
G1 X99.049 Y96.514 E71.13942
G1 X99.310 Y95.507 E71.33330
G1 X107.181 Y103.378 E73.40756
G1 X107.181 Y102.111 E73.64376
G1 X99.335 Y94.265 E75.71124
G1 X99.157 Y92.819 E75.98273
G1 X107.181 Y100.843 E78.09725
G1 X107.181 Y99.576 E78.33344
G1 X100.424 Y92.819 E80.11393
G1 X101.692 Y92.819 E80.35012
G1 X107.181 Y98.308 E81.79658
G1 X107.181 Y97.040 E82.03277
G1 X102.960 Y92.819 E83.14520
G1 X104.227 Y92.819 E83.38139
G1 X107.181 Y95.773 E84.15979
G1 X107.181 Y94.505 E84.39598
G1 X105.495 Y92.819 E84.84035
G1 X106.763 Y92.819 E85.07655
G1 X107.181 Y93.237 E85.18689
G1 Z0.600 F10800.000
G1 X92.943 Y92.845 F10800.000
G1 X93.124 Y92.656 E85.20825 F900.000
G1 X93.795 Y92.251 E85.27223
G1 X94.547 Y92.032 E85.33620
G1 X95.284 Y92.017 E85.39634 F900.000
G1 X96.079 Y92.197 E85.46290
G1 X96.778 Y92.581 E85.52805
G1 X97.344 Y93.124 E85.59203
G1 X97.745 Y93.788 E85.65535
G1 X97.967 Y94.523 E85.71805
G1 X97.984 Y95.331 E85.78400
G1 X97.796 Y96.092 E85.84798
G1 X97.419 Y96.778 E85.91195
G1 X96.876 Y97.344 E85.97593
G1 X96.205 Y97.749 E86.03990
G1 X95.453 Y97.968 E86.10388
G1 X94.669 Y97.984 E86.16785
G1 X93.908 Y97.796 E86.23183
G1 X93.263 Y97.441 E86.29197
G1 X92.664 Y96.888 E86.35853
G1 X92.255 Y96.212 E86.42302
G1 X92.033 Y95.477 E86.48572
G1 X92.016 Y94.655 E86.55285
G1 X92.226 Y93.867 E86.61941
G1 X92.581 Y93.222 E86.67955
G1 X92.891 Y92.899 E86.71603
G1 X93.415 Y93.298 F10800.000
G1 X93.537 Y93.172 E86.73037 F900.000
G1 X94.060 Y92.855 E86.78027
G1 X94.647 Y92.685 E86.83018
G1 X95.218 Y92.673 E86.87678 F900.000
G1 X95.845 Y92.815 E86.92927
G1 X96.387 Y93.113 E86.97982
G1 X96.828 Y93.537 E87.02973
G1 X97.143 Y94.056 E87.07928
G1 X97.315 Y94.626 E87.12791
G1 X97.328 Y95.258 E87.17950
G1 X97.182 Y95.852 E87.22941
G1 X96.887 Y96.387 E87.27931
G1 X96.463 Y96.828 E87.32922
G1 X95.940 Y97.145 E87.37913
G1 X95.353 Y97.315 E87.42903
G1 X94.742 Y97.328 E87.47894
G1 X94.148 Y97.182 E87.52885
G1 X93.648 Y96.906 E87.57545
G1 X93.176 Y96.470 E87.62794
G1 X92.857 Y95.944 E87.67813
G1 X92.685 Y95.374 E87.72676
G1 X92.672 Y94.734 E87.77900
G1 X92.838 Y94.113 E87.83149
G1 X93.113 Y93.613 E87.87809
G1 X93.363 Y93.352 E87.90754
G1 X93.808 Y93.676 F10800.000
G1 X93.880 Y93.601 E87.91318 F900.000
G1 X94.280 Y93.359 E87.93860
G1 X94.730 Y93.228 E87.96402
G1 X95.162 Y93.219 E87.98753 F900.000
G1 X95.650 Y93.329 E88.01467
G1 X96.062 Y93.556 E88.04022
G1 X96.399 Y93.880 E88.06564
G1 X96.641 Y94.279 E88.09099
G1 X96.771 Y94.712 E88.11555
G1 X96.781 Y95.198 E88.14193
G1 X96.669 Y95.652 E88.16735
G1 X96.444 Y96.062 E88.19277
G1 X96.120 Y96.399 E88.21819
G1 X95.720 Y96.641 E88.24361
G1 X95.270 Y96.772 E88.26903
G1 X94.802 Y96.781 E88.29445
G1 X94.348 Y96.669 E88.31987
G1 X93.969 Y96.461 E88.34338
G1 X93.602 Y96.122 E88.37052
G1 X93.359 Y95.721 E88.39600
G1 X93.229 Y95.288 E88.42056
G1 X93.219 Y94.800 E88.44708
G1 X93.348 Y94.317 E88.47421
G1 X93.556 Y93.938 E88.49772
G1 X93.756 Y93.730 E88.51343
G1 X93.779 Y93.576 F10800.000
G1 X91.450 Y91.450 F10800.000
G1 X108.550 Y91.450 E89.90942 F4800.000
G1 X108.550 Y108.550 E91.30541
G1 X91.450 Y108.550 E92.70140
G1 X91.450 Y91.525 E94.09127
G1 X90.795 Y90.795 F10800.000
G1 X109.205 Y90.795 E95.59412 F4800.000
G1 X109.205 Y109.205 E97.09696
G1 X90.795 Y109.205 E98.59981
G1 X90.795 Y90.870 E100.09654
G1 X90.250 Y90.250 F10800.000
G1 X109.750 Y90.250 E101.15603 F2400.000
G1 X109.750 Y109.750 E102.21552
G1 X90.250 Y109.750 E103.27501
G1 X90.250 Y90.325 E104.33043
G1 X90.683 Y90.500 F10800.000
G1 X92.961 Y92.194 F10800.000
G1 X93.298 Y91.857 E104.37928 F1200.000
G1 X92.155 Y91.837 E104.49649
G1 X91.837 Y92.155 E104.54256
G1 X92.176 Y92.979 E104.63392
G1 X91.861 Y93.294 E104.67959
G1 X91.837 Y97.000 F10800.000
G1 X92.150 Y96.688 E104.71608 F1200.000
G1 X92.545 Y97.229 E104.77148
G1 X91.837 Y97.937 E104.85421
G1 X91.837 Y98.874 E104.93163
G1 X93.033 Y97.678 E105.07129
G1 X93.623 Y98.025 E105.12785
G1 X91.837 Y99.811 E105.33648
G1 X91.837 Y100.747 E105.41390
G1 X94.318 Y98.267 E105.70379
G1 X95.157 Y98.365 E105.77359
G1 X91.837 Y101.684 E106.16154
G1 X91.837 Y102.621 E106.23895
G1 X96.282 Y98.177 E106.75828
G1 X100.198 Y93.696 F10800.000
G1 X96.690 Y92.147 F10800.000
G1 X97.000 Y91.837 E106.79446 F1200.000
G1 X97.937 Y91.837 E106.87188
G1 X97.223 Y92.551 E106.95524
G1 X97.680 Y93.031 E107.01000
G1 X98.874 Y91.837 E107.14947
G1 X99.811 Y91.837 E107.22689
G1 X98.033 Y93.615 E107.43458
G1 X98.273 Y94.312 E107.49550
G1 X100.747 Y91.837 E107.78467
G1 X101.684 Y91.837 E107.86209
G1 X98.365 Y95.156 E108.24995
G1 X98.191 Y96.268 E108.34290
G1 X102.621 Y91.837 E108.86063
G1 X103.558 Y91.837 E108.93805
G1 X91.837 Y103.558 E110.30771
G1 X91.837 Y104.495 E110.38512
G1 X104.495 Y91.837 E111.86427
G1 X105.432 Y91.837 E111.94168
G1 X91.837 Y105.432 E113.53031
G1 X91.837 Y106.369 E113.60773
G1 X106.369 Y91.837 E115.30584
G1 X107.306 Y91.837 E115.38325
G1 X91.837 Y107.306 E117.19085
G1 X91.917 Y108.163 E117.26195
G1 X108.163 Y91.917 E119.16031
G1 X108.163 Y92.854 E119.23772
G1 X92.854 Y108.163 E121.02659
G1 X93.791 Y108.163 E121.10401
G1 X108.163 Y93.791 E122.78340
G1 X108.163 Y94.728 E122.86081
G1 X94.728 Y108.163 E124.43071
G1 X95.665 Y108.163 E124.50813
G1 X108.163 Y95.665 E125.96855
G1 X108.163 Y96.602 E126.04596
G1 X96.602 Y108.163 E127.39690
G1 X97.539 Y108.163 E127.47431
G1 X108.163 Y97.539 E128.71576
G1 X108.163 Y98.476 E128.79318
G1 X98.476 Y108.163 E129.92514
G1 X99.413 Y108.163 E130.00256
G1 X108.163 Y99.413 E131.02504
G1 X108.163 Y100.350 E131.10246
G1 X100.350 Y108.163 E132.01545
G1 X101.287 Y108.163 E132.09287
G1 X108.163 Y101.287 E132.89638
G1 X108.163 Y102.223 E132.97380
G1 X102.223 Y108.163 E133.66783
G1 X103.160 Y108.163 E133.74525
G1 X108.163 Y103.160 E134.32979
G1 X108.163 Y104.097 E134.40721
G1 X104.097 Y108.163 E134.88227
G1 X105.034 Y108.163 E134.95968
G1 X108.163 Y105.034 E135.32526
G1 X108.163 Y105.971 E135.40268
G1 X105.971 Y108.163 E135.65877
G1 X106.908 Y108.163 E135.73618
G1 X108.163 Y106.908 E135.88279
G1 X108.163 Y107.845 E135.96021
G1 X107.845 Y108.163 E135.99733
G1 Z0.900 F10800.000
G1 E135.19733 F2400.00000
G92 E0
G1 X92.948 Y92.840 F10800.000
G1 E0.80000 F2400.00000
G1 X93.124 Y92.656 E0.82078 F900.000
G1 X93.795 Y92.251 E0.88475
G1 X94.576 Y92.024 E0.95112
G1 X95.273 Y92.020 E1.00807 F900.000
G1 X96.074 Y92.194 E1.07497
G1 X96.778 Y92.581 E1.14061
G1 X97.344 Y93.124 E1.20458
G1 X97.749 Y93.795 E1.26856
G1 X97.968 Y94.547 E1.33253
G1 X97.984 Y95.331 E1.39651
G1 X97.796 Y96.092 E1.46048
G1 X97.419 Y96.778 E1.52446
G1 X96.876 Y97.344 E1.58844
G1 X96.205 Y97.749 E1.65241
G1 X95.453 Y97.968 E1.71639
G1 X94.669 Y97.984 E1.78036
G1 X93.908 Y97.796 E1.84434
G1 X93.222 Y97.419 E1.90831
G1 X92.641 Y96.862 E1.97395
G1 X92.232 Y96.140 E2.04171
G1 X92.032 Y95.453 E2.10013
G1 X92.016 Y94.649 E2.16577
G1 X92.236 Y93.849 E2.23353
G1 X92.581 Y93.222 E2.29195
G1 X92.896 Y92.894 E2.32903
G1 X93.420 Y93.293 F10800.000
G1 X93.537 Y93.172 E2.34277 F900.000
G1 X94.060 Y92.855 E2.39267
G1 X94.670 Y92.678 E2.44458
G1 X95.205 Y92.675 E2.48822 F900.000
G1 X95.842 Y92.813 E2.54143
G1 X96.387 Y93.113 E2.59225
G1 X96.828 Y93.537 E2.64216
G1 X97.145 Y94.060 E2.69207
G1 X97.315 Y94.647 E2.74197
G1 X97.328 Y95.258 E2.79188
G1 X97.182 Y95.852 E2.84179
G1 X96.887 Y96.387 E2.89169
G1 X96.463 Y96.828 E2.94160
G1 X95.940 Y97.145 E2.99151
G1 X95.353 Y97.315 E3.04142
G1 X94.742 Y97.328 E3.09132
G1 X94.148 Y97.182 E3.14123
G1 X93.613 Y96.887 E3.19114
G1 X93.164 Y96.456 E3.24196
G1 X92.839 Y95.884 E3.29565
G1 X92.685 Y95.353 E3.34075
G1 X92.672 Y94.731 E3.39157
G1 X92.847 Y94.097 E3.44526
G1 X93.113 Y93.613 E3.49036
G1 X93.368 Y93.347 E3.52040
G1 X93.813 Y93.670 F10800.000
G1 X93.880 Y93.601 E3.52565 F900.000
G1 X94.280 Y93.359 E3.55107
G1 X94.750 Y93.223 E3.57760
G1 X95.148 Y93.220 E3.59926 F900.000
G1 X95.649 Y93.329 E3.62709
G1 X96.062 Y93.556 E3.65270
G1 X96.399 Y93.880 E3.67812
G1 X96.641 Y94.280 E3.70354
G1 X96.772 Y94.730 E3.72896
G1 X96.781 Y95.198 E3.75438
G1 X96.669 Y95.652 E3.77980
G1 X96.444 Y96.062 E3.80522
G1 X96.120 Y96.399 E3.83064
G1 X95.720 Y96.641 E3.85606
G1 X95.270 Y96.772 E3.88148
G1 X94.802 Y96.781 E3.90690
G1 X94.348 Y96.669 E3.93232
G1 X93.938 Y96.444 E3.95774
G1 X93.598 Y96.117 E3.98335
G1 X93.344 Y95.670 E4.01128
G1 X93.228 Y95.270 E4.03392
G1 X93.219 Y94.799 E4.05953
G1 X93.355 Y94.303 E4.08746
G1 X93.556 Y93.938 E4.11010
G1 X93.761 Y93.725 E4.12620
G1 X93.786 Y93.578 F10800.000
G1 X91.450 Y91.450 F10800.000
G1 X108.550 Y91.450 E5.52219 F4800.000
G1 X108.550 Y108.550 E6.91818
G1 X91.450 Y108.550 E8.31417
G1 X91.450 Y91.525 E9.70404
G1 X90.795 Y90.795 F10800.000
G1 X109.205 Y90.795 E11.20688 F4800.000
G1 X109.205 Y109.205 E12.70973
G1 X90.795 Y109.205 E14.21258
G1 X90.795 Y90.870 E15.70930
G1 X90.250 Y90.250 F10800.000
G1 X109.750 Y90.250 E16.76880 F2400.000
G1 X109.750 Y109.750 E17.82829
G1 X90.250 Y109.750 E18.88778
G1 X90.250 Y90.325 E19.94319
G1 X90.683 Y90.500 F10800.000
G1 X92.139 Y93.294 F10800.000
G1 X91.837 Y92.992 E19.98679 F1200.000
G1 X91.859 Y91.855 E20.10300
G1 X92.663 Y92.659 E20.21920
G1 X93.000 Y91.837 E20.30999
G1 X93.298 Y92.135 E20.35301
G1 X91.837 Y97.487 F10800.000
G1 X102.513 Y108.163 E21.60679 F1200.000
G1 X101.571 Y108.163 E21.68499
G1 X91.837 Y98.429 E22.82818
G1 X91.837 Y99.370 F10800.000
G1 X100.630 Y108.163 E23.86079 F1200.000
G1 X99.688 Y108.163 E23.93899
G1 X91.837 Y100.312 E24.86100
G1 X91.837 Y101.254 E24.93920
G1 X98.746 Y108.163 E25.75063
G1 X97.805 Y108.163 E25.82883
G1 X91.837 Y102.195 E26.52966
G1 X91.837 Y103.137 E26.60786
G1 X96.863 Y108.163 E27.19811
G1 X95.922 Y108.163 E27.27631
G1 X91.837 Y104.078 E27.75597
G1 X91.837 Y105.020 E27.83417
G1 X94.980 Y108.163 E28.20324
G1 X94.038 Y108.163 E28.28144
G1 X91.837 Y105.962 E28.53992
G1 X91.837 Y106.903 E28.61812
G1 X93.097 Y108.163 E28.76602
G1 X92.155 Y108.163 E28.84422
G1 X91.837 Y107.845 E28.88152
G1 X93.283 Y97.991 F10800.000
G1 X103.455 Y108.163 E30.07611 F1200.000
G1 X104.396 Y108.163 E30.15431
G1 X94.604 Y98.370 E31.30438
G1 X95.499 Y98.324 E31.37881
G1 X105.338 Y108.163 E32.53435
G1 X106.279 Y108.163 E32.61255
G1 X96.229 Y98.112 E33.79295
G1 X96.825 Y97.767 E33.85019
G1 X107.221 Y108.163 E35.07109
G1 X108.143 Y108.143 E35.14765
G1 X97.339 Y97.339 E36.41651
G1 X97.774 Y96.833 E36.47196
G1 X108.163 Y107.221 E37.69199
G1 X108.163 Y106.279 E37.77019
G1 X98.109 Y96.226 E38.95096
G1 X98.314 Y95.489 E39.01444
G1 X108.163 Y105.338 E40.17109
G1 X108.163 Y104.396 E40.24929
G1 X98.359 Y94.593 E41.40062
G1 X98.015 Y93.307 E41.51117
G1 X108.163 Y103.455 E42.70294
G1 X108.163 Y102.513 E42.78114
G1 X97.487 Y91.837 E44.03492
G1 X98.429 Y91.837 E44.11312
G1 X108.163 Y101.571 E45.25632
G1 X108.163 Y100.630 E45.33451
G1 X99.370 Y91.837 E46.36712
G1 X100.312 Y91.837 E46.44532
G1 X108.163 Y99.688 E47.36734
G1 X108.163 Y98.746 E47.44554
G1 X101.254 Y91.837 E48.25697
G1 X102.195 Y91.837 E48.33516
G1 X108.163 Y97.805 E49.03600
G1 X108.163 Y96.863 E49.11420
G1 X103.137 Y91.837 E49.70446
G1 X104.078 Y91.837 E49.78265
G1 X108.163 Y95.922 E50.26232
G1 X108.163 Y94.980 E50.34052
G1 X105.020 Y91.837 E50.70959
G1 X105.962 Y91.837 E50.78779
G1 X108.163 Y94.038 E51.04628
G1 X108.163 Y93.097 E51.12447
G1 X106.903 Y91.837 E51.27237
G1 X107.845 Y91.837 E51.35057
G1 X108.163 Y92.155 E51.38788
M106 S244.8
G1 Z1.200 F10800.000
G1 X92.948 Y92.840 F10800.000
G1 X93.124 Y92.656 E51.40866 F900.000
G1 X93.795 Y92.251 E51.47263
G1 X94.547 Y92.032 E51.53661
G1 X95.077 Y92.021 E51.57987
G1 X95.331 Y92.016 E51.60058 F900.000
G1 X96.092 Y92.204 E51.66456
