; generated by Slic3r 1.2.6 on 2015-03-14 at 17:16:00

; external perimeters extrusion width = 0.50mm
; perimeters extrusion width = 0.72mm
; infill extrusion width = 0.72mm
; solid infill extrusion width = 0.72mm
; top infill extrusion width = 0.72mm

M107
M190 S30 ; set bed temperature
M104 S185 ; set temperature
G28 ; home all axes
G1 Z5 F5000 ; lift nozzle
M109 S185 ; wait for temperature to be reached
G21 ; set units to millimeters
G90 ; use absolute coordinates
M82 ; use absolute distances for extrusion
G92 E0
G1 Z0.300 F10800.000
G1 E-0.80000 F2400.00000
G92 E0
G1 X74.650 Y75.654 F10800.000
G1 E0.80000 F2400.00000
G1 X76.412 Y74.115 E1.23418 F1800.000
G1 X78.587 Y73.254 E1.66836
G1 X80.000 Y73.107 E1.93191
G1 X100.000 Y73.107 E5.64332
G1 X102.306 Y73.504 E6.07749
G1 X104.874 Y75.126 E6.64113 F1800.000
G1 X124.874 Y95.126 E11.88986
G1 X126.223 Y97.037 E12.32404
G1 X126.893 Y100.000 E12.88767
G1 X126.893 Y120.000 E16.59908
G1 X126.496 Y122.306 E17.03326
G1 X125.350 Y124.346 E17.46744
G1 X123.588 Y125.885 E17.90162
G1 X121.413 Y126.746 E18.33580
G1 X120.000 Y126.893 E18.59935
G1 X80.000 Y126.893 E26.02217
G1 X77.694 Y126.496 E26.45635
G1 X75.654 Y125.350 E26.89052
G1 X74.115 Y123.588 E27.32470
G1 X73.254 Y121.413 E27.75888
G1 X73.107 Y120.000 E28.02243
G1 X73.107 Y80.000 E35.44525
G1 X73.504 Y77.694 E35.87943
G1 X74.613 Y75.720 E36.29969
G1 E35.49969 F2400.00000
G92 E0
G1 X97.715 Y102.285 F10800.000
G1 E0.80000 F2400.00000
G1 X117.715 Y102.285 E4.51141 F1800.000
G1 X117.715 Y117.715 E7.37462
G1 X82.285 Y117.715 E13.94923
G1 X82.285 Y82.285 E20.52385
G1 X97.715 Y82.285 E23.38706
G1 X97.715 Y102.210 E27.08455
G1 X98.607 Y101.393 F10800.000
G1 X118.607 Y101.393 E30.79596 F1800.000
G1 X118.607 Y118.607 E33.99049
G1 X81.393 Y118.607 E40.89642
G1 X81.393 Y81.393 E47.80236
G1 X98.607 Y81.393 E50.99688
G1 X98.607 Y101.318 E54.69437
G1 X99.500 Y100.500 F10800.000
G1 X119.500 Y100.500 E58.40578 F1800.000
G1 X119.500 Y119.500 E61.93162
G1 X80.500 Y119.500 E69.16888
G1 X80.500 Y80.500 E76.40613
G1 X99.500 Y80.500 E79.93197
G1 X99.500 Y100.425 E83.62946
G1 X99.500 Y101.000 F10800.000
G1 X97.181 Y83.237 F10800.000
G1 X96.763 Y82.819 E83.74212 F1800.000
G1 X95.468 Y82.819 E83.98835
G1 X97.181 Y84.532 E84.44923
G1 X97.181 Y85.826 E84.69545
G1 X94.174 Y82.819 E85.50454
G1 X92.880 Y82.819 E85.75077
G1 X97.181 Y87.120 E86.90808
G1 X97.181 Y88.414 E87.15430
G1 X91.586 Y82.819 E88.65983
G1 X90.291 Y82.819 E88.90605
G1 X97.181 Y89.709 E90.75979
G1 X97.181 Y91.003 E91.00602
G1 X88.997 Y82.819 E93.20797
G1 X87.703 Y82.819 E93.45420
G1 X97.181 Y92.297 E96.00437
G1 X97.181 Y93.592 E96.25059
G1 X86.408 Y82.819 E99.14898
G1 X85.114 Y82.819 E99.39521
G1 X97.181 Y94.886 E102.64181
G1 X97.181 Y96.180 E102.88803
G1 X83.820 Y82.819 E106.48285
G1 X82.819 Y83.112 E106.68132
G1 X97.181 Y97.474 E110.54551
G1 X97.181 Y98.769 E110.79174
G1 X82.819 Y84.406 E114.65593
G1 X82.819 Y85.700 E114.90215
G1 X97.181 Y100.063 E118.76635
G1 X97.181 Y101.357 E119.01257
G1 X82.819 Y86.995 E122.87676
G1 X82.819 Y88.289 E123.12299
G1 X111.711 Y117.181 E130.89639
G1 X113.005 Y117.181 E131.14262
G1 X98.643 Y102.819 E135.00681
G1 X99.937 Y102.819 E135.25304
G1 X114.300 Y117.181 E139.11723
G1 X115.594 Y117.181 E139.36346
G1 X101.231 Y102.819 E143.22765
G1 X102.526 Y102.819 E143.47387
G1 X116.888 Y117.181 E147.33807
G1 X117.181 Y116.180 E147.53653
G1 X103.820 Y102.819 E151.13135
G1 X105.114 Y102.819 E151.37758
G1 X117.181 Y114.886 E154.62418
G1 X117.181 Y113.592 E154.87040
G1 X106.408 Y102.819 E157.76879
G1 X107.703 Y102.819 E158.01502
G1 X117.181 Y112.297 E160.56519
G1 X117.181 Y111.003 E160.81141
G1 X108.997 Y102.819 E163.01337
G1 X110.291 Y102.819 E163.25959
G1 X117.181 Y109.709 E165.11333
G1 X117.181 Y108.414 E165.35956
G1 X111.586 Y102.819 E166.86508
G1 X112.880 Y102.819 E167.11131
G1 X117.181 Y107.120 E168.26861
G1 X117.181 Y105.826 E168.51484
G1 X114.174 Y102.819 E169.32393
G1 X115.468 Y102.819 E169.57016
G1 X117.181 Y104.532 E170.03103
G1 X117.181 Y103.237 E170.27726
G1 X116.763 Y102.819 E170.38992
G1 X110.417 Y117.181 F10800.000
G1 X82.819 Y89.583 E177.81511 F1800.000
G1 X82.819 Y90.877 E178.06133
G1 X109.123 Y117.181 E185.13831
G1 X107.828 Y117.181 E185.38453
G1 X82.819 Y92.172 E192.11329
G1 X82.819 Y93.466 E192.35952
G1 X106.534 Y117.181 E198.74006
G1 X105.240 Y117.181 E198.98628
G1 X82.819 Y94.760 E205.01861
G1 X82.819 Y96.054 E205.26484
G1 X103.946 Y117.181 E210.94895
G1 X102.651 Y117.181 E211.19517
G1 X82.819 Y97.349 E216.53107
G1 X82.819 Y98.643 E216.77729
G1 X101.357 Y117.181 E221.76497
G1 X100.063 Y117.181 E222.01120
G1 X82.819 Y99.937 E226.65066
G1 X82.819 Y101.231 E226.89689
G1 X98.769 Y117.181 E231.18813
G1 X97.474 Y117.181 E231.43436
G1 X82.819 Y102.526 E235.37739
G1 X82.819 Y103.820 E235.62362
G1 X96.180 Y117.181 E239.21843
G1 X94.886 Y117.181 E239.46466
G1 X82.819 Y105.114 E242.71126
G1 X82.819 Y106.408 E242.95748
G1 X93.592 Y117.181 E245.85587
G1 X92.297 Y117.181 E246.10209
G1 X82.819 Y107.703 E248.65226
G1 X82.819 Y108.997 E248.89849
G1 X91.003 Y117.181 E251.10044
G1 X89.709 Y117.181 E251.34667
G1 X82.819 Y110.291 E253.20041
G1 X82.819 Y111.586 E253.44663
G1 X88.414 Y117.181 E254.95215
G1 X87.120 Y117.181 E255.19838
G1 X82.819 Y112.880 E256.35569
G1 X82.819 Y114.174 E256.60191
G1 X85.826 Y117.181 E257.41100
G1 X84.532 Y117.181 E257.65723
G1 X82.819 Y115.468 E258.11810
G1 X82.819 Y116.763 E258.36433
G1 X83.237 Y117.181 E258.47699
G1 Z0.600 F10800.000
G1 X98.550 Y101.450 F10800.000
G1 X118.550 Y101.450 E260.10964 F4800.000
G1 X118.550 Y118.550 E261.50563
G1 X81.450 Y118.550 E264.53427
G1 X81.450 Y81.450 E267.56292
G1 X98.550 Y81.450 E268.95891
G1 X98.550 Y101.375 E270.58544
G1 X99.205 Y100.795 F10800.000
G1 X119.205 Y100.795 E272.21809 F4800.000
G1 X119.205 Y119.205 E273.72094
G1 X80.795 Y119.205 E276.85644
G1 X80.795 Y80.795 E279.99194
G1 X99.205 Y80.795 E281.49479
G1 X99.205 Y100.720 E283.12132
G1 X99.750 Y100.250 F10800.000
G1 X119.750 Y100.250 E284.20798 F2400.000
G1 X119.750 Y119.750 E285.26747
G1 X80.250 Y119.750 E287.41362
G1 X80.250 Y80.250 E289.55976
G1 X99.750 Y80.250 E290.61925
G1 X99.750 Y100.175 E291.70184
G1 X99.750 Y100.750 F10800.000
G1 X98.163 Y101.370 F10800.000
G1 X81.837 Y117.695 E293.60620 F1200.000
G1 X81.837 Y116.760 E293.68334
G1 X98.163 Y100.434 E295.58770
G1 X98.163 Y99.499 E295.66485
G1 X81.837 Y115.824 E297.56921
G1 X81.837 Y114.889 E297.64636
G1 X98.163 Y98.564 E299.55072
G1 X98.163 Y97.629 E299.62786
G1 X81.837 Y113.954 E301.53222
G1 X81.837 Y113.019 E301.60937
G1 X98.163 Y96.693 E303.51373
G1 X98.163 Y95.758 E303.59088
G1 X81.837 Y112.083 E305.49524
G1 X81.837 Y111.148 E305.57238
G1 X98.163 Y94.823 E307.47674
G1 X98.163 Y93.888 E307.55389
G1 X81.837 Y110.213 E309.45825
G1 X81.837 Y109.278 E309.53540
G1 X98.163 Y92.952 E311.43976
G1 X98.163 Y92.017 E311.51690
G1 X81.837 Y108.342 E313.42126
G1 X81.837 Y107.407 E313.49841
G1 X98.163 Y91.082 E315.40277
G1 X98.163 Y90.147 E315.47992
G1 X81.837 Y106.472 E317.38428
G1 X81.837 Y105.537 E317.46142
G1 X98.163 Y89.211 E319.36578
G1 X98.163 Y88.276 E319.44293
G1 X81.837 Y104.601 E321.34729
G1 X81.837 Y103.666 E321.42444
G1 X98.163 Y87.341 E323.32880
G1 X98.163 Y86.405 E323.40594
G1 X81.837 Y102.731 E325.31030
G1 X81.837 Y101.796 E325.38745
G1 X98.163 Y85.470 E327.29181
G1 X98.163 Y84.535 E327.36896
G1 X81.837 Y100.860 E329.27332
G1 X81.837 Y99.925 E329.35046
G1 X98.163 Y83.600 E331.25482
G1 X98.163 Y82.664 E331.33197
G1 X81.837 Y98.990 E333.23633
G1 X81.837 Y98.054 E333.31348
G1 X98.054 Y81.837 E335.20522
G1 X97.119 Y81.837 E335.28236
G1 X81.837 Y97.119 E337.06501
G1 X81.837 Y96.184 E337.14215
G1 X96.184 Y81.837 E338.81570
G1 X95.249 Y81.837 E338.89284
G1 X81.837 Y95.249 E340.45729
G1 X81.837 Y94.313 E340.53443
G1 X94.313 Y81.837 E341.98978
G1 X93.378 Y81.837 E342.06692
G1 X81.837 Y93.378 E343.41317
G1 X81.837 Y92.443 E343.49031
G1 X92.443 Y81.837 E344.72746
G1 X91.508 Y81.837 E344.80460
G1 X81.837 Y91.508 E345.93265
G1 X81.837 Y90.572 E346.00979
G1 X90.572 Y81.837 E347.02874
G1 X89.637 Y81.837 E347.10589
G1 X81.837 Y89.637 E348.01573
G1 X81.837 Y88.702 E348.09288
G1 X88.702 Y81.837 E348.89363
G1 X87.767 Y81.837 E348.97077
G1 X81.837 Y87.767 E349.66242
G1 X81.837 Y86.831 E349.73956
G1 X86.831 Y81.837 E350.32211
G1 X85.896 Y81.837 E350.39926
G1 X81.837 Y85.896 E350.87271
G1 X81.837 Y84.961 E350.94985
G1 X84.961 Y81.837 E351.31420
G1 X84.026 Y81.837 E351.39135
G1 X81.837 Y84.026 E351.64660
G1 X81.837 Y83.090 E351.72374
G1 X83.090 Y81.837 E351.86990
G1 X82.155 Y81.837 E351.94704
G1 X81.837 Y82.155 E351.98409
G1 X98.630 Y101.837 F10800.000
G1 X82.305 Y118.163 E353.88845 F1200.000
G1 X83.240 Y118.163 E353.96560
G1 X99.566 Y101.837 E355.86996
G1 X100.501 Y101.837 E355.94711
G1 X84.175 Y118.163 E357.85147
G1 X85.111 Y118.163 E357.92861
G1 X101.436 Y101.837 E359.83298
G1 X102.371 Y101.837 E359.91012
G1 X86.046 Y118.163 E361.81448
G1 X86.981 Y118.163 E361.89163
G1 X103.307 Y101.837 E363.79599
G1 X104.242 Y101.837 E363.87313
G1 X87.917 Y118.163 E365.77750
G1 X88.852 Y118.163 E365.85464
G1 X105.177 Y101.837 E367.75900
G1 X106.112 Y101.837 E367.83615
G1 X89.787 Y118.163 E369.74051
G1 X90.722 Y118.163 E369.81765
G1 X107.048 Y101.837 E371.72202
G1 X107.983 Y101.837 E371.79916
G1 X91.658 Y118.163 E373.70352
G1 X92.593 Y118.163 E373.78067
G1 X108.918 Y101.837 E375.68503
G1 X109.853 Y101.837 E375.76218
G1 X93.528 Y118.163 E377.66654
G1 X94.463 Y118.163 E377.74368
G1 X110.789 Y101.837 E379.64804
G1 X111.724 Y101.837 E379.72519
G1 X95.399 Y118.163 E381.62955
G1 X96.334 Y118.163 E381.70670
G1 X112.659 Y101.837 E383.61106
G1 X113.594 Y101.837 E383.68820
G1 X97.269 Y118.163 E385.59256
G1 X98.204 Y118.163 E385.66971
G1 X114.530 Y101.837 E387.57407
G1 X115.465 Y101.837 E387.65122
G1 X99.140 Y118.163 E389.55558
G1 X100.075 Y118.163 E389.63272
G1 X116.400 Y101.837 E391.53708
G1 X117.335 Y101.837 E391.61423
G1 X101.010 Y118.163 E393.51859
G1 X101.945 Y118.163 E393.59574
G1 X118.163 Y101.945 E395.48748
G1 X118.163 Y102.881 E395.56463
G1 X102.881 Y118.163 E397.34728
G1 X103.816 Y118.163 E397.42442
G1 X118.163 Y103.816 E399.09797
G1 X118.163 Y104.751 E399.17512
G1 X104.751 Y118.163 E400.73957
G1 X105.687 Y118.163 E400.81671
G1 X118.163 Y105.687 E402.27207
G1 X118.163 Y106.622 E402.34921
G1 X106.622 Y118.163 E403.69546
G1 X107.557 Y118.163 E403.77261
G1 X118.163 Y107.557 E405.00976
G1 X118.163 Y108.492 E405.08690
G1 X108.492 Y118.163 E406.21496
G1 X109.428 Y118.163 E406.29210
G1 X118.163 Y109.428 E407.31106
G1 X118.163 Y110.363 E407.38820
G1 X110.363 Y118.163 E408.29805
G1 X111.298 Y118.163 E408.37520
G1 X118.163 Y111.298 E409.17595
G1 X118.163 Y112.233 E409.25310
G1 X112.233 Y118.163 E409.94475
G1 X113.169 Y118.163 E410.02190
G1 X118.163 Y113.169 E410.60445
G1 X118.163 Y114.104 E410.68160
G1 X114.104 Y118.163 E411.15505
G1 X115.039 Y118.163 E411.23220
G1 X118.163 Y115.039 E411.59655
G1 X118.163 Y115.974 E411.67370
G1 X115.974 Y118.163 E411.92896
G1 X116.910 Y118.163 E412.00610
G1 X118.163 Y116.910 E412.15226
G1 X118.163 Y117.845 E412.22940
G1 X117.845 Y118.163 E412.26646
G1 Z0.900 F10800.000
G1 X98.550 Y101.450 F10800.000
G1 X118.550 Y101.450 E413.89911 F4800.000
G1 X118.550 Y118.550 E415.29511
G1 X81.450 Y118.550 E418.32375
G1 X81.450 Y81.450 E421.35239
G1 X98.550 Y81.450 E422.74838
G1 X98.550 Y101.375 E424.37491
G1 X99.205 Y100.795 F10800.000
G1 X119.205 Y100.795 E426.00757 F4800.000
G1 X119.205 Y119.205 E427.51042
G1 X80.795 Y119.205 E430.64592
G1 X80.795 Y80.795 E433.78142
G1 X99.205 Y80.795 E435.28426
G1 X99.205 Y100.720 E436.91079
G1 X99.750 Y100.250 F10800.000
G1 X119.750 Y100.250 E437.99745 F2400.000
G1 X119.750 Y119.750 E439.05694
G1 X80.250 Y119.750 E441.20309
G1 X80.250 Y80.250 E443.34924
G1 X99.750 Y80.250 E444.40873
G1 X99.750 Y100.175 E445.49131
G1 X99.750 Y100.750 F10800.000
G1 X99.268 Y101.837 F10800.000
G1 X115.593 Y118.163 E447.38260 F1200.000
G1 X116.522 Y118.163 E447.45869
G1 X100.197 Y101.837 E449.34998
G1 X101.126 Y101.837 E449.42607
G1 X117.451 Y118.163 E451.31736
G1 X118.163 Y117.945 E451.37831
G1 X102.055 Y101.837 E453.24443
G1 X102.983 Y101.837 E453.32052
G1 X118.163 Y117.017 E455.07904
G1 X118.163 Y116.088 E455.15513
G1 X103.912 Y101.837 E456.80603
G1 X104.841 Y101.837 E456.88212
G1 X118.163 Y115.159 E458.42542
G1 X118.163 Y114.230 E458.50151
G1 X105.770 Y101.837 E459.93721
G1 X106.699 Y101.837 E460.01330
G1 X118.163 Y113.301 E461.34138
G1 X118.163 Y112.372 E461.41747
G1 X107.628 Y101.837 E462.63795
G1 X108.557 Y101.837 E462.71404
G1 X118.163 Y111.443 E463.82691
G1 X118.163 Y110.515 E463.90300
G1 X109.485 Y101.837 E464.90827
G1 X110.414 Y101.837 E464.98436
G1 X118.163 Y109.586 E465.88202
G1 X118.163 Y108.657 E465.95811
G1 X111.343 Y101.837 E466.74816
G1 X112.272 Y101.837 E466.82425
G1 X118.163 Y107.728 E467.50669
G1 X118.163 Y106.799 E467.58278
G1 X113.201 Y101.837 E468.15762
G1 X114.130 Y101.837 E468.23371
G1 X118.163 Y105.870 E468.70094
G1 X118.163 Y104.942 E468.77703
G1 X115.058 Y101.837 E469.13666
G1 X115.987 Y101.837 E469.21274
G1 X118.163 Y104.013 E469.46476
G1 X118.163 Y103.084 E469.54085
G1 X116.916 Y101.837 E469.68526
G1 X117.845 Y101.837 E469.76135
G1 X118.163 Y102.155 E469.79816
G1 X90.000 Y101.000 F10800.000
G1 X98.163 Y82.155 F10800.000
G1 X97.845 Y81.837 E469.83496 F1200.000
G1 X96.916 Y81.837 E469.91105
G1 X98.163 Y83.084 E470.05546
G1 X98.163 Y84.013 E470.13155
G1 X95.987 Y81.837 E470.38357
G1 X95.058 Y81.837 E470.45966
G1 X98.163 Y84.942 E470.81928
G1 X98.163 Y85.870 E470.89537
G1 X94.130 Y81.837 E471.36260
G1 X93.201 Y81.837 E471.43869
G1 X98.163 Y86.799 E472.01353
G1 X98.163 Y87.728 E472.08962
G1 X92.272 Y81.837 E472.77206
G1 X91.343 Y81.837 E472.84815
G1 X98.163 Y88.657 E473.63820
G1 X98.163 Y89.586 E473.71429
G1 X90.414 Y81.837 E474.61195
G1 X89.485 Y81.837 E474.68804
G1 X98.163 Y90.515 E475.69331
G1 X98.163 Y91.443 E475.76940
G1 X88.557 Y81.837 E476.88227
G1 X87.628 Y81.837 E476.95836
G1 X98.163 Y92.372 E478.17884
G1 X98.163 Y93.301 E478.25493
G1 X86.699 Y81.837 E479.58302
G1 X85.770 Y81.837 E479.65911
G1 X98.163 Y94.230 E481.09480
G1 X98.163 Y95.159 E481.17089
G1 X84.841 Y81.837 E482.71419
G1 X83.912 Y81.837 E482.79028
G1 X98.163 Y96.088 E484.44119
G1 X98.163 Y97.017 E484.51728
G1 X82.983 Y81.837 E486.27579
G1 X82.055 Y81.837 E486.35188
G1 X98.163 Y97.945 E488.21800
G1 X98.163 Y98.874 E488.29409
G1 X81.837 Y82.549 E490.18538
G1 X81.837 Y83.478 E490.26147
G1 X98.163 Y99.803 E492.15276
G1 X98.163 Y100.732 E492.22885
G1 X81.837 Y84.407 E494.12014
G1 X81.837 Y85.335 E494.19623
G1 X114.665 Y118.163 E497.99927
G1 X113.736 Y118.163 E498.07536
G1 X81.837 Y86.264 E501.77080
G1 X81.837 Y87.193 E501.84689
G1 X112.807 Y118.163 E505.43471
G1 X111.878 Y118.163 E505.51080
G1 X81.837 Y88.122 E508.99102
G1 X81.837 Y89.051 E509.06711
G1 X110.949 Y118.163 E512.43973
G1 X110.020 Y118.163 E512.51582
G1 X81.837 Y89.980 E515.78082
G1 X81.837 Y90.909 E515.85691
G1 X109.091 Y118.163 E519.01431
G1 X108.163 Y118.163 E519.09040
G1 X81.837 Y91.837 E522.14020
G1 X81.837 Y92.766 E522.21629
G1 X107.234 Y118.163 E525.15847
G1 X106.305 Y118.163 E525.23456
G1 X81.837 Y93.695 E528.06914
G1 X81.837 Y94.624 E528.14523
G1 X105.376 Y118.163 E530.87220
G1 X104.447 Y118.163 E530.94829
G1 X81.837 Y95.553 E533.56766
G1 X81.837 Y96.482 E533.64375
G1 X103.518 Y118.163 E536.15551
G1 X102.590 Y118.163 E536.23160
G1 X81.837 Y97.410 E538.63575
G1 X81.837 Y98.339 E538.71184
G1 X101.661 Y118.163 E541.00838
G1 X100.732 Y118.163 E541.08447
G1 X81.837 Y99.268 E543.27341
G1 X81.837 Y100.197 E543.34950
G1 X99.803 Y118.163 E545.43083
G1 X98.874 Y118.163 E545.50692
G1 X81.837 Y101.126 E547.48064
G1 X81.837 Y102.055 E547.55673
G1 X97.945 Y118.163 E549.42285
G1 X97.016 Y118.163 E549.49894
G1 X81.837 Y102.984 E551.25745
G1 X81.837 Y103.912 E551.33354
G1 X96.088 Y118.163 E552.98444
G1 X95.159 Y118.163 E553.06053
G1 X81.837 Y104.841 E554.60383
G1 X81.837 Y105.770 E554.67992
G1 X94.230 Y118.163 E556.11561
G1 X93.301 Y118.163 E556.19170
G1 X81.837 Y106.699 E557.51978
G1 X81.837 Y107.628 E557.59587
G1 X92.372 Y118.163 E558.81634
G1 X91.443 Y118.163 E558.89243
G1 X81.837 Y108.557 E560.00530
