; generated by Slic3r 1.2.6 on 2015-03-14 at 17:59:34

; external perimeters extrusion width = 0.50mm
; perimeters extrusion width = 0.72mm
; infill extrusion width = 0.72mm
; solid infill extrusion width = 0.72mm
; top infill extrusion width = 0.72mm

M107
M190 S30 ; set bed temperature
M104 S185 ; set temperature
G28 ; home all axes
G1 Z5 F5000 ; lift nozzle
M109 S185 ; wait for temperature to be reached
G21 ; set units to millimeters
G90 ; use absolute coordinates
M82 ; use absolute distances for extrusion
G92 E0
G1 Z0.300 F10800.000
G1 E-0.80000 F2400.00000
G92 E0
G1 X88.408 Y90.654 F10800.000
G1 E0.80000 F2400.00000
G1 X90.170 Y89.115 E1.23418 F1800.000
G1 X92.345 Y88.254 E1.66836
G1 X93.758 Y88.107 E1.93191
G1 X104.944 Y88.107 E4.00777
G1 X107.250 Y88.504 E4.44194
G1 X109.290 Y89.650 E4.87612 F1800.000
G1 X110.829 Y91.412 E5.31030
G1 X111.690 Y93.587 E5.74448
G1 X111.837 Y95.000 E6.00803
G1 X111.837 Y105.000 E7.86373
G1 X111.440 Y107.306 E8.29791
G1 X110.294 Y109.346 E8.73209
G1 X108.532 Y110.885 E9.16627
G1 X106.357 Y111.746 E9.60045
G1 X104.944 Y111.893 E9.86399
G1 X93.758 Y111.893 E11.93986
G1 X91.452 Y111.496 E12.37403
G1 X89.412 Y110.350 E12.80821
G1 X87.873 Y108.588 E13.24239
G1 X87.011 Y106.413 E13.67657
G1 X86.865 Y105.000 E13.94012
G1 X86.865 Y95.000 E15.79582
G1 X87.262 Y92.694 E16.23000
G1 X88.371 Y90.720 E16.65026
G1 E15.85026 F2400.00000
G92 E0
G1 X102.659 Y102.715 F10800.000
G1 E0.80000 F2400.00000
G1 X96.043 Y102.715 E2.02766 F1800.000
G1 X96.043 Y97.285 E3.03516
G1 X102.659 Y97.285 E4.26281
G1 X102.659 Y102.640 E5.25639
G1 X103.551 Y103.607 F10800.000
G1 X95.150 Y103.607 E6.81537 F1800.000
G1 X95.150 Y96.393 E8.15418
G1 X103.551 Y96.393 E9.71316
G1 X103.551 Y103.532 E11.03806
G1 X104.444 Y104.500 F10800.000
G1 X94.258 Y104.500 E12.92835 F1800.000
G1 X94.258 Y95.500 E14.59848
G1 X104.444 Y95.500 E16.48877
G1 X104.444 Y104.425 E18.14499
G1 X104.011 Y104.250 F10800.000
G1 X102.125 Y98.237 F10800.000
G1 X101.707 Y97.819 E18.25783 F1800.000
G1 X100.410 Y97.819 E18.50483
G1 X102.125 Y99.534 E18.96697
G1 X102.125 Y100.830 E19.21397
G1 X99.114 Y97.819 E20.02543
G1 X97.818 Y97.819 E20.27243
G1 X102.125 Y102.126 E21.43320
G1 X100.884 Y102.181 E21.66996
G1 X96.576 Y97.874 E22.83072
G1 X96.576 Y99.170 E23.07772
G1 X99.588 Y102.181 E23.88918
G1 X98.291 Y102.181 E24.13618
G1 X96.576 Y100.466 E24.59833
G1 X96.576 Y101.763 E24.84533
G1 X96.995 Y102.181 E24.95816
G1 Z0.600 F10800.000
G1 E24.15816 F2400.00000
G92 E0
G1 X107.109 Y103.550 F10800.000
G1 E0.80000 F2400.00000
G1 X105.194 Y103.550 E0.95630 F3600.000
G1 X93.508 Y103.550 E1.91029 F4800.000
G1 X91.615 Y103.550 E2.06475 F3600.000
G1 X91.615 Y96.450 E2.64442
G1 X93.508 Y96.450 E2.79889
G1 X105.194 Y96.450 E3.75288 F4800.000
G1 X107.109 Y96.450 E3.90917 F3600.000
G1 X107.109 Y103.475 E4.48271
G1 X107.763 Y104.205 F10800.000
G1 X105.194 Y104.205 E4.69244 F3600.000
G1 X93.508 Y104.205 E5.64643 F4800.000
G1 X90.961 Y104.205 E5.85433 F3600.000
G1 X90.961 Y95.795 E6.54085
G1 X93.508 Y95.795 E6.74874
G1 X105.194 Y95.795 E7.70273 F4800.000
G1 X107.763 Y95.795 E7.91246 F3600.000
G1 X107.763 Y104.130 E8.59286
G1 X108.308 Y104.750 F10800.000
G1 X105.194 Y104.750 E8.84707 F3600.000
G1 X93.508 Y104.750 E9.48203 F2400.000
G1 X90.416 Y104.750 E9.73442 F3600.000
G1 X90.416 Y95.250 E10.50993
G1 X93.508 Y95.250 E10.76232
G1 X105.194 Y95.250 E11.39728 F2400.000
G1 X108.308 Y95.250 E11.65149 F3600.000
G1 X108.308 Y104.675 E12.42088
G1 X106.562 Y103.169 F10800.000
G1 X106.562 Y96.831 E13.15437 F3600.000
G1 X105.917 Y96.831 E13.22906
G1 X105.917 Y103.169 E13.96255
G1 X105.271 Y103.169 E14.03724
G1 X105.271 Y96.831 E14.77073
G1 E13.97073 F2400.00000
G92 E0
G1 X104.458 Y103.163 F10800.000
G1 E0.80000 F2400.00000
G1 X104.776 Y102.845 E0.83855 F1200.000
G1 X104.776 Y101.872 E0.92203
G1 X103.485 Y103.163 E1.07864
G1 X102.512 Y103.163 E1.16212
G1 X104.776 Y100.899 E1.43679
G1 X104.776 Y99.926 E1.52027
G1 X101.539 Y103.163 E1.91300
G1 X100.566 Y103.163 E1.99648
G1 X104.776 Y98.953 E2.50727
G1 X104.776 Y97.980 E2.59076
G1 X99.593 Y103.163 E3.21961
G1 X98.620 Y103.163 E3.30309
G1 X104.776 Y97.007 E4.05000
G1 X103.973 Y96.837 E4.12041
G1 X97.648 Y103.163 E4.88796
G1 X96.675 Y103.163 E4.97145
G1 X103.000 Y96.837 E5.73900
G1 X102.027 Y96.837 E5.82248
G1 X95.702 Y103.163 E6.59003
G1 X94.729 Y103.163 E6.67351
G1 X101.054 Y96.837 E7.44107
G1 X100.081 Y96.837 E7.52455
G1 X93.926 Y102.993 E8.27146
G1 X93.926 Y102.020 E8.35494
G1 X99.108 Y96.837 E8.98379
G1 X98.135 Y96.837 E9.06727
G1 X93.926 Y101.047 E9.57806
G1 X93.926 Y100.074 E9.66154
G1 X97.162 Y96.837 E10.05427
G1 X96.190 Y96.837 E10.13775
G1 X93.926 Y99.101 E10.41242
G1 X93.926 Y98.128 E10.49590
G1 X95.217 Y96.837 E10.65251
G1 X94.244 Y96.837 E10.73599
G1 X93.926 Y97.155 E10.77454
G1 X93.465 Y97.389 F10800.000
G1 X93.414 Y96.812 E10.83089 F3600.000
G1 X92.816 Y96.812 E10.88903
G1 X93.373 Y103.174 E11.51007
G1 X92.776 Y103.188 E11.56811
G1 X92.220 Y96.826 E12.18914
G1 X92.128 Y102.611 F10800.000
G1 X92.178 Y103.188 E12.24550 F3600.000
G1 Z0.900 F10800.000
G1 E11.44550 F2400.00000
G92 E0
G1 X109.208 Y103.550 F10800.000
G1 E0.80000 F2400.00000
G1 X108.808 Y103.550 E0.83267 F3600.000
G1 X89.916 Y103.550 E2.37490 F4800.000
G1 X89.642 Y103.550 E2.39722 F3600.000
G1 X89.642 Y96.450 E2.97689
G1 X89.916 Y96.450 E2.99921
G1 X108.808 Y96.450 E4.54144 F4800.000
G1 X109.208 Y96.450 E4.57411 F3600.000
G1 X109.208 Y103.475 E5.14765
G1 X109.863 Y104.205 F10800.000
G1 X108.808 Y104.205 E5.23375 F3600.000
G1 X89.916 Y104.205 E6.77598 F4800.000
G1 X88.988 Y104.205 E6.85173 F3600.000
G1 X88.988 Y95.795 E7.53825
G1 X89.916 Y95.795 E7.61400
G1 X108.808 Y95.795 E9.15624 F4800.000
G1 X109.863 Y95.795 E9.24233 F3600.000
G1 X109.863 Y104.130 E9.92273
G1 X110.408 Y104.750 F10800.000
G1 X108.808 Y104.750 E10.05332 F3600.000
G1 X89.916 Y104.750 E11.07980 F2400.000
G1 X88.443 Y104.750 E11.20004 F3600.000
G1 X88.443 Y95.250 E11.97555
G1 X89.916 Y95.250 E12.09580
G1 X108.808 Y95.250 E13.12227 F2400.000
G1 X110.408 Y95.250 E13.25286 F3600.000
G1 X110.408 Y104.675 E14.02225
G1 X108.662 Y103.169 F10800.000
G1 X108.662 Y96.831 E14.69374 F3600.000
G1 X108.042 Y96.831 E14.75939
G1 X108.042 Y103.169 E15.43087
G1 X107.546 Y97.155 F10800.000
G1 X107.229 Y96.837 E15.46887 F1200.000
G1 X106.270 Y96.837 E15.55000
G1 X107.546 Y98.114 E15.70272
G1 X107.546 Y99.073 E15.78385
G1 X105.311 Y96.837 E16.05130
G1 X104.352 Y96.837 E16.13243
G1 X107.546 Y100.032 E16.51461
G1 X107.546 Y100.991 E16.59573
G1 X103.392 Y96.837 E17.09263
G1 X102.433 Y96.837 E17.17376
G1 X107.546 Y101.950 E17.78539
G1 X107.546 Y102.910 E17.86651
G1 X101.474 Y96.837 E18.59287
G1 X100.515 Y96.837 E18.67400
G1 X106.841 Y103.163 E19.43063
G1 X105.881 Y103.163 E19.51176
G1 X99.556 Y96.837 E20.26839
G1 X98.597 Y96.837 E20.34952
G1 X104.922 Y103.163 E21.10616
G1 X103.963 Y103.163 E21.18728
G1 X97.638 Y96.837 E21.94392
G1 X96.679 Y96.837 E22.02504
G1 X103.004 Y103.163 E22.78168
G1 X102.045 Y103.163 E22.86280
G1 X95.720 Y96.837 E23.61944
G1 X94.761 Y96.837 E23.70056
G1 X101.086 Y103.163 E24.45720
G1 X100.127 Y103.163 E24.53833
G1 X93.802 Y96.837 E25.29496
G1 X92.843 Y96.837 E25.37609
G1 X99.168 Y103.163 E26.13273
G1 X98.209 Y103.163 E26.21385
G1 X91.884 Y96.837 E26.97049
G1 X91.178 Y97.091 E27.03392
G1 X97.250 Y103.163 E27.76028
G1 X96.291 Y103.163 E27.84140
G1 X91.178 Y98.050 E28.45303
G1 X91.178 Y99.009 E28.53415
G1 X95.332 Y103.163 E29.03106
G1 X94.373 Y103.163 E29.11218
G1 X91.178 Y99.968 E29.49436
G1 X91.178 Y100.927 E29.57548
G1 X93.413 Y103.163 E29.84293
G1 X92.454 Y103.163 E29.92406
G1 X91.178 Y101.886 E30.07678
G1 X91.178 Y102.845 E30.15791
G1 X91.495 Y103.163 E30.19591
G1 X90.205 Y103.188 F10800.000
G1 X90.155 Y102.611 E30.37199 F3600.000
G1 E29.57199 F2400.00000
G92 E0
G1 X90.716 Y97.389 F10800.000
G1 E0.80000 F2400.00000
G1 X90.666 Y96.812 E0.97608 F3600.000
M106 S234.6
G1 Z1.200 F10800.000
G1 X110.642 Y103.550 F10800.000
G1 X88.340 Y103.550 E2.79660 F4800.000
G1 X88.340 Y96.450 E3.37627
G1 X110.642 Y96.450 E5.19678
G1 X110.642 Y103.475 E5.77033
G1 X111.296 Y104.205 F10800.000
M106 S255
G1 X110.908 Y104.205 E5.80201 F3600.000
M106 S234.6
G1 X87.943 Y104.205 E7.67671 F4800.000
M106 S255
G1 X87.686 Y104.205 E7.69770 F3600.000
G1 X87.686 Y95.795 E8.38422
G1 X87.943 Y95.795 E8.40521
M106 S234.6
G1 X110.908 Y95.795 E10.27991 F4800.000
M106 S255
G1 X111.296 Y95.795 E10.31160 F3600.000
G1 X111.296 Y104.130 E10.99200
M106 S234.6
G1 X111.841 Y104.750 F10800.000
M106 S255
G1 X110.908 Y104.750 E11.06817 F3600.000
M106 S234.6
G1 X87.943 Y104.750 E12.31593 F2400.000
M106 S255
G1 X87.141 Y104.750 E12.38142 F3600.000
G1 X87.141 Y95.250 E13.15693
G1 X87.943 Y95.250 E13.22241
M106 S234.6
G1 X110.908 Y95.250 E14.47017 F2400.000
M106 S255
G1 X111.841 Y95.250 E14.54635 F3600.000
G1 X111.841 Y104.675 E15.31574
M106 S234.6
G1 E14.51574 F2400.00000
G92 E0
G1 X109.936 Y103.163 F10800.000
G1 E0.80000 F2400.00000
G1 X110.254 Y102.845 E0.83676 F1200.000
G1 X110.254 Y101.917 E0.91266
G1 X109.008 Y103.163 E1.05676
G1 X108.081 Y103.163 E1.13267
G1 X110.254 Y100.990 E1.38411
G1 X110.254 Y100.062 E1.46002
G1 X107.153 Y103.163 E1.81880
G1 X106.225 Y103.163 E1.89471
G1 X110.254 Y99.134 E2.36084
G1 X110.254 Y98.206 E2.43674
G1 X105.298 Y103.163 E3.01022
G1 X104.370 Y103.163 E3.08612
G1 X110.254 Y97.279 E3.76694
G1 X109.767 Y96.837 E3.82067
G1 X103.442 Y103.163 E4.55256
G1 X102.956 Y102.721 E4.60630
G1 X108.840 Y96.837 E5.28711
G1 X107.912 Y96.837 E5.36302
G1 X102.956 Y101.794 E5.93649
G1 X102.956 Y100.866 E6.01240
G1 X106.984 Y96.837 E6.47853
G1 X106.057 Y96.837 E6.55443
G1 X102.956 Y99.938 E6.91322
G1 X102.956 Y99.010 E6.98912
G1 X105.129 Y96.837 E7.24056
G1 X104.201 Y96.837 E7.31647
G1 X102.956 Y98.083 E7.46057
G1 X102.956 Y97.155 E7.53647
G1 X103.274 Y96.837 E7.57323
G1 X102.460 Y98.732 F10800.000
G1 X99.113 Y97.835 E7.85609 F4800.000
G1 X96.242 Y100.707 E8.18761
G1 X96.242 Y103.004 E8.37509
G1 X102.460 Y103.004 E8.88273
G1 X102.460 Y98.732 E9.23143
G1 X98.650 Y97.373 F10800.000
G1 X98.550 Y96.996 E9.26324 F4800.000
G1 X96.242 Y96.996 E9.45165
G1 X96.242 Y99.782 E9.67903
G1 X98.650 Y97.373 E9.95712
G1 X95.428 Y103.163 F10800.000
G1 X95.746 Y102.845 E9.99586 F1200.000
G1 X95.746 Y101.867 E10.08013
G1 X94.451 Y103.163 E10.23804
G1 X93.473 Y103.163 E10.32232
G1 X95.746 Y100.890 E10.59941
G1 X95.746 Y99.912 E10.68368
G1 X92.496 Y103.163 E11.07996
G1 X91.518 Y103.163 E11.16423
G1 X95.746 Y98.935 E11.67968
G1 X95.746 Y97.957 E11.76396
G1 X90.541 Y103.163 E12.39859
G1 X89.563 Y103.163 E12.48287
G1 X95.746 Y96.980 E13.23668
G1 X94.911 Y96.837 E13.30971
G1 X88.728 Y103.020 E14.06353
G1 X88.728 Y102.043 E14.14780
G1 X93.933 Y96.837 E14.78243
G1 X92.956 Y96.837 E14.86671
G1 X88.728 Y101.065 E15.38216
G1 X88.728 Y100.088 E15.46643
G1 X91.978 Y96.837 E15.86271
G1 X91.001 Y96.837 E15.94698
G1 X88.728 Y99.110 E16.22407
G1 X88.728 Y98.133 E16.30834
G1 X90.023 Y96.837 E16.46626
G1 X89.046 Y96.837 E16.55053
G1 X88.728 Y97.155 E16.58926
M106 S232.05
G1 Z1.500 F10800.000
G1 X111.987 Y103.550 F10800.000
G1 X87.038 Y103.550 E18.62589 F4800.000
G1 X87.038 Y96.450 E19.20556
G1 X111.987 Y96.450 E21.24219
G1 X111.987 Y103.475 E21.81573
G1 X112.641 Y104.205 F10800.000
M106 S255
G1 X112.341 Y104.205 E21.84023 F3600.000
M106 S232.05
G1 X86.641 Y104.205 E23.93822 F4800.000
M106 S255
G1 X86.384 Y104.205 E23.95921 F3600.000
G1 X86.384 Y95.795 E24.64574
G1 X86.641 Y95.795 E24.66673
M106 S232.05
G1 X112.341 Y95.795 E26.76472 F4800.000
M106 S255
G1 X112.641 Y95.795 E26.78922 F3600.000
G1 X112.641 Y104.130 E27.46962
M106 S232.05
G1 X113.186 Y104.750 F10800.000
M106 S255
G1 X112.341 Y104.750 E27.53862 F3600.000
M106 S232.05
G1 X86.641 Y104.750 E28.93500 F2400.000
M106 S255
G1 X85.839 Y104.750 E29.00048 F3600.000
G1 X85.839 Y95.250 E29.77599
G1 X86.641 Y95.250 E29.84147
M106 S232.05
G1 X112.341 Y95.250 E31.23785 F2400.000
M106 S255
G1 X113.186 Y95.250 E31.30685 F3600.000
G1 X113.186 Y104.675 E32.07624
M106 S232.05
G1 E31.27624 F2400.00000
G92 E0
G1 X111.599 Y97.155 F10800.000
G1 E0.80000 F2400.00000
G1 X111.281 Y96.837 E0.83883 F1200.000
G1 X110.301 Y96.837 E0.92351
G1 X111.599 Y98.135 E1.08211
G1 X111.599 Y99.115 E1.16679
G1 X109.321 Y96.837 E1.44515
G1 X108.342 Y96.837 E1.52984
G1 X111.599 Y100.095 E1.92797
G1 X111.599 Y101.075 E2.01265
G1 X107.362 Y96.837 E2.53055
G1 X106.382 Y96.837 E2.61523
G1 X111.599 Y102.055 E3.25289
G1 X111.599 Y103.035 E3.33758
G1 X105.402 Y96.837 E4.09500
G1 X104.422 Y96.837 E4.17969
G1 X110.747 Y103.163 E4.95277
G1 X109.767 Y103.163 E5.03746
G1 X103.570 Y96.965 E5.79488
G1 X103.570 Y97.945 E5.87957
G1 X108.787 Y103.163 E6.51723
G1 X107.807 Y103.163 E6.60192
G1 X103.570 Y98.925 E7.11981
G1 X103.570 Y99.905 E7.20450
G1 X106.827 Y103.163 E7.60262
G1 X105.848 Y103.163 E7.68731
G1 X103.570 Y100.885 E7.96567
G1 X103.570 Y101.865 E8.05036
G1 X104.868 Y103.163 E8.20895
G1 X103.888 Y103.163 E8.29364
G1 X103.570 Y102.845 E8.33246
G1 X103.074 Y98.897 F10800.000
G1 X99.113 Y97.835 E8.66723 F4800.000
G1 X98.888 Y96.996 E8.73815
G1 X103.074 Y96.996 E9.07987
G1 X103.074 Y98.897 E9.23502
G1 X98.481 Y98.005 F10800.000
G1 X95.650 Y100.836 E9.56189 F4800.000
G1 X95.650 Y96.996 E9.87535
G1 X98.211 Y96.996 E10.08442
G1 X98.481 Y98.005 E10.16966
G1 X95.154 Y97.155 F10800.000
G1 X94.836 Y96.837 E10.20763 F1200.000
G1 X93.878 Y96.837 E10.28865
G1 X95.154 Y98.113 E10.44120
G1 X95.154 Y99.072 E10.52221
G1 X92.920 Y96.837 E10.78933
G1 X91.961 Y96.837 E10.87035
G1 X95.154 Y100.030 E11.25205
G1 X95.154 Y100.989 E11.33306
G1 X91.003 Y96.837 E11.82933
G1 X90.044 Y96.837 E11.91035
G1 X95.154 Y101.947 E12.52119
G1 X95.154 Y102.906 E12.60220
G1 X89.086 Y96.837 E13.32762
G1 X88.127 Y96.837 E13.40863
G1 X94.453 Y103.163 E14.16476
G1 X93.494 Y103.163 E14.24578
G1 X87.426 Y97.094 E14.97119
G1 X87.426 Y98.053 E15.05220
G1 X92.536 Y103.163 E15.66304
G1 X91.577 Y103.163 E15.74406
G1 X87.426 Y99.011 E16.24032
G1 X87.426 Y99.970 E16.32134
G1 X90.619 Y103.163 E16.70303
G1 X89.660 Y103.163 E16.78405
G1 X87.426 Y100.928 E17.05117
G1 X87.426 Y101.887 E17.13218
G1 X88.702 Y103.163 E17.28473
G1 X87.744 Y103.163 E17.36574
G1 X87.426 Y102.845 E17.40372
M106 S237.15
G1 Z1.800 F10800.000
G1 X113.184 Y103.550 F10800.000
G1 X85.877 Y103.550 E19.63289 F4800.000
G1 X85.877 Y96.450 E20.21256
G1 X113.184 Y96.450 E22.44173
G1 X113.184 Y103.475 E23.01527
G1 X113.686 Y104.205 F10800.000
G1 X85.339 Y104.205 E25.32938 F4800.000
M106 S255
G1 X85.223 Y104.205 E25.33884 F3600.000
G1 X85.223 Y95.795 E26.02537
G1 X85.339 Y95.795 E26.03483
M106 S237.15
G1 X113.686 Y95.795 E28.34894 F4800.000
M106 S255
G1 X113.839 Y95.795 E28.36140 F3600.000
G1 X113.839 Y104.205 E29.04792
G1 X113.761 Y104.205 E29.05425
M106 S237.15
G1 X114.384 Y104.750 F10800.000
M106 S255
G1 X113.686 Y104.750 E29.11120 F3600.000
M106 S237.15
G1 X85.339 Y104.750 E30.65142 F2400.000
M106 S255
G1 X84.678 Y104.750 E30.70538 F3600.000
G1 X84.678 Y95.250 E31.48089
G1 X85.339 Y95.250 E31.53485
M106 S237.15
G1 X113.686 Y95.250 E33.07507 F2400.000
M106 S255
G1 X114.384 Y95.250 E33.13202 F3600.000
G1 X114.384 Y104.675 E33.90141
M106 S237.15
G1 E33.10141 F2400.00000
G92 E0
G1 X112.479 Y103.163 F10800.000
G1 E0.80000 F2400.00000
G1 X112.797 Y102.845 E0.83954 F1200.000
G1 X112.797 Y101.847 E0.92734
G1 X111.481 Y103.163 E1.09105
G1 X110.483 Y103.163 E1.17885
G1 X112.797 Y100.849 E1.46673
G1 X112.797 Y99.852 E1.55453
G1 X109.486 Y103.163 E1.96659
G1 X108.488 Y103.163 E2.05439
G1 X112.797 Y98.854 E2.59062
G1 X112.797 Y97.856 E2.67842
G1 X107.490 Y103.163 E3.33882
G1 X106.523 Y103.132 E3.42399
G1 X112.787 Y96.868 E4.20359
G1 X111.820 Y96.837 E4.28876
G1 X106.513 Y102.144 E4.94916
G1 X106.513 Y101.146 E5.03696
G1 X110.822 Y96.837 E5.57319
G1 X109.824 Y96.837 E5.66099
G1 X106.513 Y100.148 E6.07305
G1 X106.513 Y99.151 E6.16085
G1 X108.826 Y96.837 E6.44873
G1 X107.829 Y96.837 E6.53654
G1 X106.513 Y98.153 E6.70024
G1 X106.513 Y97.155 E6.78805
G1 X106.831 Y96.837 E6.82758
G1 X98.650 Y97.373 F10800.000
G1 X106.017 Y99.347 E7.45019 F4800.000
G1 X106.017 Y100.024 E7.50550
G1 X98.481 Y98.005 E8.14242
G1 X93.671 Y102.814 E8.69767
